src/pos-icons/calendar-alert.svg

<svg height="24" viewBox="0 0 24 24" width="24" xmlns="http://www.w3.org/2000/svg"><path d="m6 1v2h-1c-1.11 0-2 .89-2 2v14c0 1.11.9 2 2 2h14c1.11 0 2-.89 2-2v-14c0-1.1-.89-2-2-2h-1v-2h-2v2h-8v-2zm-1 7h14v11h-14v-12m6 2v5h2v-5zm0 7v2h2v-2z"/></svg>

<?xml version="1.0" encoding="UTF-8"?><!DOCTYPE svg PUBLIC "-//W3C//DTD SVG 1.1//EN" "http://www.w3.org/Graphics/SVG/1.1/DTD/svg11.dtd"><svg xmlns="http://www.w3.org/2000/svg" xmlns:xlink="http://www.w3.org/1999/xlink" version="1.1" id="mdi-calendar-alert" width="24" height="24" viewBox="0 0 24 24"><path d="M6 1V3H5C3.89 3 3 3.89 3 5V19C3 20.11 3.9 21 5 21H19C20.11 21 21 20.11 21 19V5C21 3.9 20.11 3 19 3H18V1H16V3H8V1H6M5 8H19V19H5V7M11 9V14H13V9H11M11 16V18H13V16H11Z" /></svg>
